X: 092199
T: I Am Asleep and Don't Wake Me
S: Fitzmaurice Collection
Z: BB
L: 1/8
M: 3/4
R: waltz
Q: 1/4 = 120
K: A
AF | E2 F2 A2 | A2 A2 A2 | B2 dcBA | F4 E2 |
E2 F2 A2 | c2 e2 d2 | c3d B2 | A4 :|
z2 |=g2 g2 g2 | f2 f2 f2 | e2 f2 ab | a2 e2 c2 |
=g2 g2 g2 | f2 f2 af | e2 dcBA | A2 F2 E2 |
d2 d2 de | c2 c2 cd | BcdcBA | F4 E2 |
E2 F2 A2 | c2 e2 d2 | c3d B2 | A4 :|
